X: 25477
T: Marchioness Of Huntly, The
R: strathspey
M: 4/4
K: Dmajor
D>F A>F G<B A2|B<e e>f g/f/e/d/ c/B/A/G/|F>G A>F G<B A2|
B>e d/c/B/A/ d2 d2:|f>a d>a f>a g/f/e/d/|c>e A>e c>e A>a|
f>a d>a f>a g/f/e/d/|c>e d/c/B/A/ d2 d<a|f<a d<a f<a d'2|
B<e e>f g/f/e/d/ c/B/A/G/|F>G A>F G<B A2|B>e d/c/B/A/ d2 d2||

